icons/communication/email-question-24.svg

<svg width="24" height="24" viewBox="0 0 24 24" fill="none" xmlns="http://www.w3.org/2000/svg">
<path d="M19.1939 14.5289C18.8374 14.4689 18.4708 14.5346 18.1589 14.7143C17.8471 14.894 17.6102 15.1761 17.4901 15.5106C17.3496 15.9022 16.9119 16.108 16.5125 15.9703C16.113 15.8325 15.9031 15.4034 16.0437 15.0117C16.2839 14.3423 16.758 13.7778 17.382 13.4182C18.006 13.0586 18.7397 12.9272 19.4531 13.0472C20.1666 13.1671 20.8136 13.5308 21.2798 14.0737C21.7458 14.6164 22.0009 15.3033 22 16.0128C21.9998 17.1627 21.1302 17.922 20.5094 18.3278C20.3107 18.4576 20.1139 18.5671 19.9362 18.6566C19.8472 18.7014 19.8027 18.7238 19.7733 18.7537C19.7463 18.7812 19.7279 18.8106 19.7154 18.8467C19.7017 18.8861 19.7017 18.9323 19.7017 19.0248V19.2483C19.7017 19.6635 19.3584 20 18.935 20C18.5116 20 18.1683 19.6635 18.1683 19.2483L18.1683 18.2657C18.1683 17.9427 18.3787 17.6559 18.6909 17.5531C18.6909 17.5531 18.8893 17.4787 18.9827 17.4379C19.1718 17.3555 19.4181 17.2343 19.6589 17.0769C20.1871 16.7316 20.4666 16.3644 20.4666 16.0123C20.4672 15.6577 20.3397 15.3132 20.1067 15.0419C19.8738 14.7706 19.5504 14.5888 19.1939 14.5289Z" fill="black"/>
<path d="M19 21C19.5523 21 20 21.4477 20 22C20 22.5523 19.5523 23 19 23C18.4477 23 18 22.5523 18 22C18 21.4477 18.4477 21 19 21Z" fill="black"/>
<path fill-rule="evenodd" clip-rule="evenodd" d="M0 4.75C0 3.7835 0.783502 3 1.75 3H22.25C23.2165 3 24 3.7835 24 4.75V11.375C24 11.7892 23.6642 12.125 23.25 12.125C22.8358 12.125 22.5 11.7892 22.5 11.375V7.18716L12.7516 11.8231C12.276 12.0492 11.724 12.0492 11.2484 11.8231L1.5 7.18715V18.75C1.5 18.8881 1.61193 19 1.75 19H9.25C9.66421 19 10 19.3358 10 19.75C10 20.1642 9.66421 20.5 9.25 20.5H1.75C0.783502 20.5 0 19.7165 0 18.75V4.75ZM1.5 5.52618L11.8926 10.4685C11.9606 10.5008 12.0394 10.5008 12.1074 10.4685L22.5 5.52618V4.75C22.5 4.61193 22.3881 4.5 22.25 4.5H1.75C1.61193 4.5 1.5 4.61193 1.5 4.75V5.52618Z" fill="black"/>
</svg>

<svg xmlns="http://www.w3.org/2000/svg" width="24" height="24"><path d="M19.194 14.529a1.557 1.557 0 00-1.035.185 1.51 1.51 0 00-.669.797.77.77 0 01-.977.46.748.748 0 01-.47-.96 3.02 3.02 0 011.339-1.593 3.116 3.116 0 012.071-.37 3.08 3.08 0 011.827 1.026 2.97 2.97 0 01.72 1.939c0 1.15-.87 1.909-1.49 2.315-.2.13-.396.24-.574.329a.644.644 0 00-.163.097.24.24 0 00-.058.093c-.013.04-.013.085-.013.178v.223a.76.76 0 01-.767.752.76.76 0 01-.767-.752v-.982c0-.323.21-.61.523-.713 0 0 .198-.074.292-.115.189-.082.435-.204.676-.361.528-.345.808-.713.808-1.065a1.49 1.49 0 00-.36-.97 1.538 1.538 0 00-.913-.513zM19 21a1 1 0 110 2 1 1 0 010-2z"/><path fill-rule="evenodd" d="M0 4.75C0 3.784.784 3 1.75 3h20.5c.966 0 1.75.784 1.75 1.75v6.625a.75.75 0 01-1.5 0V7.187l-9.748 4.636a1.75 1.75 0 01-1.504 0L1.5 7.187V18.75c0 .138.112.25.25.25h7.5a.75.75 0 010 1.5h-7.5A1.75 1.75 0 010 18.75v-14zm1.5.776l10.393 4.943a.25.25 0 00.214 0L22.5 5.526V4.75a.25.25 0 00-.25-.25H1.75a.25.25 0 00-.25.25v.776z"/></svg>
